packages/calcite-ui-icons/icons/speech-bubble-empty-32.svg

<?xml version="1.0" encoding="UTF-8"?><svg id="icons" xmlns="http://www.w3.org/2000/svg" viewBox="0 0 32 32"><defs><style>.cls-1{fill:none;}</style></defs><path d="M7,28.94336v-5.94336h-.5c-1.92969,0-3.5-1.57031-3.5-3.5V7.5c0-1.92969,1.57031-3.5,3.5-3.5h20c1.92969,0,3.45,1.57031,3.45,3.5v11.94092c0,.63379-.075,1.18945-.32305,1.65137-.63965,1.19482-1.80859,1.90771-3.12695,1.90771h-11.17969l-8.32031,5.94336ZM6.5,5c-1.37891,0-2.5,1.12158-2.5,2.5v12c0,1.37842,1.12109,2.5,2.5,2.5h1.5v5l7-5h11.5c.94336,0,1.7832-.51562,2.24609-1.37988.16797-.31494.25391-.71191.25391-1.1792V7.5c0-1.37842-1.12109-2.5-2.5-2.5H6.5Z"/><rect class="cls-1" width="32" height="32"/></svg>

<svg xmlns="http://www.w3.org/2000/svg" viewBox="0 0 32 32"><path d="M7 28.943V23h-.5C4.57 23 3 21.43 3 19.5v-12C3 5.57 4.57 4 6.5 4h20c1.93 0 3.45 1.57 3.45 3.5v11.94c0 .635-.075 1.19-.323 1.652C28.987 22.287 27.818 23 26.5 23H15.32L7 28.943zM6.5 5A2.503 2.503 0 0 0 4 7.5v12C4 20.878 5.121 22 6.5 22H8v5l7-5h11.5c.943 0 1.783-.516 2.246-1.38.168-.315.254-.712.254-1.18V7.5C29 6.122 27.879 5 26.5 5h-20z"/><path fill="none" d="M0 0h32v32H0z"/></svg>
